X: 243, Mouth of the Tobique
T: Mouth Of The Tobique
R: reel
M: 4/4
L: 1/8
K: Gmaj
|:(3DEF|GFGA Bded|BdBG DGBG|ABAF DFAF|GABc d2(3DEF|
GFGA Bded|BdBG DGBG|ABAF DFAF|GBAFG2:|
|:ef|gfga gdBg|fdAd f2gf|ecAG FGAF|GABc d2ef|
gfga gdBg|fdAd f2gf|ecAG FGAF|GBAFG2:|
|:(3DEF|G2 BG GcGG|BGGc GGBG|FGAB cDEF|GABc d2(3DEF|
G2BG GcGG|BGGc GGBG|FGAB cDEF|GBAFG2:| 

Andere Version mit Gitarrenakkorden

